X:1
T:What You Gonna Call Yo' Pretty Little Baby?
M:4/4
L:1/4
C:Negro Spiritual
K:Bb
G/B/B/G/ B3/2G/ | B/c/d/c/ BG |
w:What you gon-na call yo' pret-ty lit-tle ba-by,
G/B/B/G/ B3/2G/ | B/B/B/B/ GF |
w:What you gon-na call-yo' pret-ty lit-tle ba-by,
G/B/B/B/ B3/2G/ | B/c/d/c/ BG |
w:What you gon-na call yo' pret-ty lit-tle ba-by?
c2ec | B/B(G/G2) ||
w:Born, born in Beth-le-hem.
G B/B/ BG | B c/c/ BG |
w:Some say_ one thing, I'll say Im-man-uel,
c2ec | B/B (G/G2) ||
w:Born, born in Beth-le-hem_.